X:1
T:Alfie
C:Burt Bacharach
Z:All Rights Reserved
L:1/8
Q:1/4=1
M:4/4
K:C
V:1 treble nm="Voice"
%%MIDI program 52
V:1
"Cmaj7""^Moderate" G/F/E/F/ G2-"Am7" G4 |"Dm7" F c3-"G7sus4" c2 GA |"Cmaj7" G2 CB"Dm7" A B,2 C | %3
w: What's it all a- bout, _|Al- fie? _ Is is|just for the mo- ment we|
"Em7" D4"A7b9" z2 EG |"Dm7" ec c2-"G7" cd/c/ B/c/d- |"Em7" dG G2"A7" z4 |"Dm7" AD E2 FG A2 | %7
w: live? What's it|all a- bout _ when you sort it out,|_ Al- fie?|Are we meant to take more|
"Ebdim7" Ad B4 c2 |"Dm7" AD E2 FG A2- |"G7" A2 A2"G+7" A4 |"Cmaj7" G/F/E/F/ G2-"Am7" G4 | %11
w: than we give, or|are we meant to be kind?|_ And if|on- ly fools are kind _|
"Dm7" F c3-"G7sus4" c2 GA |"Cmaj7" G2 CB"Dm7" A B,2 C |"Em7" D4"A7b9" z2 EG | %14
w: Al- fie _ then I|guess it is wise to be|cruel. And if|
"Dm7" ec c2-"G7" cd/c/ B/c/d- |"Em7" dG G2"A7" z2 z c |"Dm7" AD E2 FG A2 |"Ebdim7" Ad B4 z c | %18
w: life be- longs _ on- ly- to the strong,|_ Al- fie, what|will you lend on an old|gold- en rule? As|
"Bm7" d3 B"Em7" ^F2 G2 |"Am7b5/D" _E4"D7sus4" D=E (3GBd |"Bm7" e3 B"E7" B4 |"Am7" z4"D7" z2 z D | %22
w: sure as I be-|lieve there's a heav- en a-|bove, Al- fie,|I|
"Bm7" d3 B"Em7" (3^F2 A2 G2 |"Am7b5/D" ^D4"D7sus4" =DEGB |"Dm7" c3 B c2 B2 |"G7" B3 A"G+7" B2 A2 | %26
w: know there's some- thing much|more, some- thing e- ven|non- be- liev- ers|can be- lieve in.|
"Cmaj7" G/F/E/F/ G2-"Am7" G4 |"Dm7" F c3-"G7sus4" c4 |"F#m7b5" z ABc"F7" DCdc | %29
w: I be- lieve in love, _|Al- fie. _|With- out true love we just ex-|
"Em7" G4"Am7" z d c2 |"F#m7b5" z ABc"F7" DCdc |"Em7" G3 A"Am7" B c3 |"D7#11" d2 e6 | %33
w: ist, Al- fie.|Un- til you find the love you've|missed you're noth- ing,|Al- fie.|
"Dm7" AD E2 FG A2 |"Ebdim7" Ad B4 c2 |"Dm7" AD E2"G7" FG A2 |"C7b9" AG G6 |"Dm7b5/C" z8 | %38
w: When you walk let your heart|lead the way, and|you'll find love an- y day,|Al- * fie,||
"C7b9" AG G6 |"Cmaj9" z8 |] %40
w: Al- * fie.-||

